dist/images/icons/timer.svg

<svg width="22" height="22" viewBox="0 0 22 22" fill="none" xmlns="http://www.w3.org/2000/svg">
<g opacity="0.9">
<path d="M11.5748 2.5401V1.58126C11.5748 1.41919 11.5104 1.26375 11.3958 1.14914C11.2812 1.03454 11.1257 0.970154 10.9637 0.970154C10.8016 0.970154 10.6461 1.03454 10.5315 1.14914C10.4169 1.26375 10.3526 1.41919 10.3526 1.58126V2.5456C5.55044 2.87926 1.74444 6.88968 1.74444 11.7752C1.74444 16.8777 5.89664 21.0299 11 21.0299C16.1034 21.0299 20.2556 16.8777 20.2556 11.7752C20.2556 6.86524 16.4114 2.83801 11.5748 2.5401ZM11 19.8077C6.57039 19.8077 2.96666 16.2039 2.96666 11.7752C2.96666 7.34588 6.57039 3.74246 11 3.74246C15.4297 3.74246 19.0334 7.34588 19.0334 11.7752C19.0334 16.2039 15.4297 19.8077 11 19.8077Z" fill="#31352B"/>
<path d="M7.86295 17.3216C5.86798 16.1901 4.62864 14.0644 4.62864 11.7749C4.62864 11.6056 4.49206 11.4693 4.32309 11.4693C4.15412 11.4693 4.01753 11.6056 4.01753 11.7749C4.01753 14.2841 5.37573 16.6133 7.56167 17.8536C7.63221 17.8935 7.71574 17.9038 7.79387 17.8822C7.872 17.8606 7.93834 17.8088 7.9783 17.7382C8.01825 17.6677 8.02854 17.5842 8.00691 17.506C7.98528 17.4279 7.93349 17.3616 7.86295 17.3216Z" fill="#31352B"/>
<path d="M9.52923 18.1598C9.4109 18.1289 9.29342 18.0949 9.17692 18.0578C9.1002 18.0348 9.01754 18.0429 8.94671 18.0802C8.87588 18.1176 8.82256 18.1813 8.79821 18.2576C8.77386 18.3339 8.78044 18.4167 8.81652 18.4882C8.8526 18.5596 8.91531 18.6141 8.99114 18.6398C9.11825 18.6808 9.24598 18.7175 9.37645 18.7508C9.45489 18.771 9.53816 18.7593 9.60795 18.7181C9.67774 18.677 9.72834 18.6098 9.74862 18.5314C9.75867 18.4926 9.76097 18.4522 9.75538 18.4125C9.74979 18.3728 9.73642 18.3346 9.71604 18.3001C9.69566 18.2655 9.66867 18.2354 9.63661 18.2113C9.60455 18.1872 9.56806 18.1697 9.52923 18.1598Z" fill="#31352B"/>
<path d="M18.8854 5.72794C19.0002 5.84236 19.1557 5.90652 19.3177 5.90629C19.4798 5.90606 19.6351 5.84146 19.7495 5.72671C19.864 5.61196 19.9281 5.45646 19.9279 5.2944C19.9277 5.13235 19.8631 4.97703 19.7483 4.8626L18.1616 3.27983C18.1048 3.22311 18.0374 3.17814 17.9632 3.1475C17.889 3.11686 17.8095 3.10114 17.7292 3.10126C17.649 3.10137 17.5695 3.11731 17.4954 3.14816C17.4214 3.17901 17.3541 3.22417 17.2974 3.28105C17.1831 3.39585 17.119 3.55134 17.1193 3.71336C17.1195 3.87538 17.184 4.03068 17.2987 4.14516L18.8854 5.72794Z" fill="#31352B"/>
<path d="M11.5746 11.6613V6.77572C11.5746 6.61365 11.5102 6.45821 11.3956 6.3436C11.281 6.229 11.1256 6.16461 10.9635 6.16461C10.8014 6.16461 10.646 6.229 10.5314 6.3436C10.4168 6.45821 10.3524 6.61365 10.3524 6.77572V11.9253C10.3524 12.0936 10.4401 12.254 10.5623 12.3692L12.3507 14.0406C12.469 14.1518 12.6196 14.2074 12.7702 14.2074C12.8521 14.2076 12.9331 14.1906 13.0079 14.1575C13.0828 14.1245 13.15 14.0761 13.205 14.0156C13.4376 13.7699 13.4168 13.3834 13.1714 13.1518L11.5746 11.6613Z" fill="#31352B"/>
</g>
</svg>

<svg width="22" height="22" fill="none" xmlns="http://www.w3.org/2000/svg"><g opacity=".9" fill="#31352B"><path d="M11.575 2.54v-.959a.611.611 0 00-1.222 0v.965c-4.803.333-8.609 4.344-8.609 9.23 0 5.102 4.153 9.254 9.256 9.254 5.103 0 9.256-4.152 9.256-9.255 0-4.91-3.845-8.937-8.681-9.235zM11 19.808c-4.43 0-8.033-3.604-8.033-8.033 0-4.43 3.603-8.033 8.033-8.033s8.033 3.604 8.033 8.033c0 4.429-3.603 8.033-8.033 8.033z"/><path d="M7.863 17.322a6.39 6.39 0 01-3.234-5.547.305.305 0 10-.611 0 7.004 7.004 0 003.544 6.079.306.306 0 00.3-.532zm1.667.838a6.938 6.938 0 01-.353-.102.306.306 0 00-.186.582c.127.04.255.078.385.11a.305.305 0 00.153-.59zm9.355-12.432a.611.611 0 00.863-.865L18.162 3.28a.61.61 0 10-.863.865l1.586 1.583zm-7.31 5.933V6.776a.611.611 0 00-1.223 0v5.15c0 .168.088.328.21.443l1.789 1.672a.61.61 0 00.657.117.61.61 0 00.164-1.006l-1.597-1.49z"/></g></svg>
